X:1
T:Si fueris Craesus
T:Daniel Friderici
T:Source : Bicinia sacra---Rostock---J.Richelius---1642. Editor : André Vierendeels (09/07/17).
T:Notes : Original clefs : C1, C1 Editorial accidentals above the staff
T:Si fueris Craesus
T:©
T:©
C:Daniel Friderici
Z:©
%%score [ 1 2 ]
L:1/8
Q:1/4=120
M:2/2
K:C
V:1 treble nm="Soprano 1" snm="S 1"
V:2 treble nm="Soprano 2" snm="S 2"
V:1
 d4 B3 c | d2 e2 d2 G2 | d4 B4 | z2 G2 d4 | B4 z2 G2 | c4 B2 A2- | AA d2 ^c4 | ^c2 d2 e4 | %8
w: Si fu- e-|ris Crae- sus, sic|par- tis,|sic par-|tis, sic|par- tis u-|* te- re re-|bus, sic par-|
 B2 ^c3 c d2 | e2 f2 e4 | d8 :: D4 G3 G | A2 A2 B2 d2 | c2 e2 d2 B2 | A3 A B4 | c4 B2 ^G2 | %16
w: tis u- te- re|re- * *|bus:|Ne ja- ce-|at sur- das, ne|ja- ce- at, ne|ja- ce- at|sur- das, ne|
 A3 A B4 | c4 B2 G2 | A3 A B4 | c4 B4 | z4 z2 c2- | cc c2 B2 A2- | A2 ^G2 A2 B2- | BB B2 A2 G2- | %24
w: ja- ce- at|sur- das, ne|ja- ce- at|sur- das,|La-|* za- rus an- te|_ fo- res, La-|* za- rus an- te|
 G2 ^F2 G2 e2- | ee d2 c2 B2 | A2 G2 A4 | G8 :| %28
w: _ fo- res, La-|* za- rus an- te|fo- * *|res.|
V:2
 B4 d3 c | B2 A2 B4 | z2 G2 d4 | B4 z2 G2 | d4 B2 d2 | e4 d2 c2- | cc B2 A4 | A2 B2 ^c4 | %8
w: Si fu- e-|ris Crae- sus,|sic par-|tis, sic|par- tis, sic|par- tis u|_ te- re re-|bus, sic par-|
 d2 e3 e d2 | ^c2 d3 c/B/ c2 | d8 :: z8 | D4 G3 G | A2 A2 B2 d2 | c2 e2 d2 G2 | A3 A B4 | %16
w: tis u- te- re|re- * * * *|bus:||Ne ja- ce-|at sur- das, ne|ja- ce- at sur-|das, ne ja-|
"^#" c4 B2 G2 | A3 A B4 |"^#" c4 B2 ^G2 | A3 A ^G4 | A4 E2 e2- | ee e2 d2 c2 | B4 ^c2 d2- | %23
w: ce- at sur-|das, ne ja-|ce- at, ne|ja- ce- at|sur- das, La-|* za- rus, an- te|fo- res, La-|
"^-natural" dd d2 c2 B2 | A4 B2 c2- | cc B2 A2 G2 | ^F2 G4 F2 | G8 :| %28
w: * za- rus an- te|fo- res, La-|* za- rus an- te|fo- * *|res.|

